X:1
T:Title
%%score 1 { 2 | 3 }
L:1/8
Q:1/4=100
M:4/4
K:G
V:1 treble nm="Grand Piano, Soprano"
V:2 bass nm="Choir Pad, Any One Here?, F. Crosby"
V:3 bass 
V:1
 [DB][CA][B,G][B,G] [CE]2 [B,D]2 | [DG][DA] [DB]2 [Dd]2 [GB][DA] | [DG]2 [FA][FA] [FA]2 [FA]2- | %3
w: By~William~Howard~Doane * * * * *|||
 [FA]2 [GB][GB] [GB]2 [Gd]2 | [Gd][Gc][GB][GB] [Gd]2 [GB]2 | [FA][EG] [EA]2- [EA][EG] [CE]2 | %6
w: |||
 [EG]2 D[DG] [DG][EA] [DB]2- | [DB][Dc] [DB]2 [DA]2 [DG]2- | [DG]2 [Gd][Gd] [Gd]2 [Gd]2- | %9
w: |||
 [Gd][Gc] [GB]2 [FA]2 G[FA] | [GB]2 [Ac]2 [GB]2 [EA]2 | [EG]2 [Fd]6 | %12
w: |||
 [Ad][Ac][GB][GB] [Gd]2 [GB]2 | [FA][EG] [EA]2- [EA][EG] [CE]2 | [EG]2 D[DG] [DG][EA] [DB]2- | %15
w: |||
 [DB][Dc] [DB]2 [DA]2 [DG]2- | [DG]6 z2 |] %17
w: ||
V:2
 G,G,G,G, G,2 G,2 | G,F, G,2 B,2[K:treble] DC | B,2 DD D2 D2- | D2 DD D2 B,2 | B,EDD B,2 D2 | %5
 CB, C2- CC[K:bass] G,2 | G,2 G,B, G,G, G,2- | G,A, G,2 C2 B,2- | B,2 B,B, B,2 B,2- | %9
 B,[K:treble]E D2 D2 D2 | D2 D2 D2[K:bass] A,2 | A,2 A,6 | DD[K:treble]DD B,2 D2 | %13
 CB, C2- CC[K:bass] G,2 | G,2 G,B, G,G, G,2- | G,A, G,2 C2 B,2- | B,6 z2 |] %17
V:3
 G,,G,,G,,G,, G,,2 G,,2 | B,,D, z2 G,2 G,2 | G,2 D,D, D,2 D,2- | D,2 G,G, G,2 G,2 | %4
 G,G,G,G, G,2 G,2 | D,E, C,2- C,C, C,2 | C,2 B,,G,, B,,C, D,2- | D,D, D,2 D,2 G,2- | %8
 G,2 G,G, G,2 G,2- | G,G, G,2 D,2 B,,D, | G,2 F,2 G,2 C,2 | ^C,2 D,6 | F,F,G,G, G,2 G,2 | %13
 D,E, C,2- C,C, C,2 | C,2 B,,G,, B,,C, D,2- | D,D, D,2 D,2 [G,,G,]2- | [G,,G,]6 z2 |] %17

